assets/images/vector/icons/bolt_slash_icon.svg

<svg fill="none" height="60" viewBox="0 0 57 60" width="57" xmlns="http://www.w3.org/2000/svg"><g stroke="#111" stroke-linecap="round" stroke-linejoin="round" stroke-width="10"><path d="m27.2043 42.9133-1.7434 13.51c-.1133.8766 1.0367 1.3033 1.5234.5633l18.8133-28.57c.73-1.1067-.0667-2.5833-1.3933-2.5833"/><path d="m32.5005 25.8334h-4.1667l2.8734-22.25671c.1133-.87667-1.0367-1.30333-1.5234-.56333l-18.8166 28.57004c-.73 1.1066.0666 2.5833 1.3933 2.5833h11.9067"/><path d="m5 53.3334 46.6667-46.66665"/></g></svg>

<svg width="57" height="60" viewBox="0 0 57 60" fill="none" xmlns="http://www.w3.org/2000/svg">
<path d="M27.2043 42.9133L25.4609 56.4233C25.3476 57.2999 26.4976 57.7266 26.9843 56.9866L45.7976 28.4166C46.5276 27.3099 45.7309 25.8333 44.4043 25.8333" stroke="#111111" stroke-width="10" stroke-linecap="round" stroke-linejoin="round"/>
<path d="M32.5005 25.8334H28.3338L31.2072 3.57669C31.3205 2.70002 30.1705 2.27336 29.6838 3.01336L10.8672 31.5834C10.1372 32.69 10.9338 34.1667 12.2605 34.1667H24.1672" stroke="#111111" stroke-width="10" stroke-linecap="round" stroke-linejoin="round"/>
<path d="M5 53.3334L51.6667 6.66675" stroke="#111111" stroke-width="10" stroke-linecap="round" stroke-linejoin="round"/>
</svg>
